X: 71
T:Mr. Cosgill's Delight,aka. TBe.071
M:C|
L:1/8
Q:120
C:titled only "Gavot" in ms
S:Thomas Bennet MS,1718, VWML
R:gavotte
O:England
N:"=" - as in MS.
H:1718
Z:vmp.C. Graebe..
K:D major
f2a2d'2d2 | g>af>g "="e2d2 | f2a2e2A2 | d>ec>d "="B2 A2 ||!
 e2a2f2b2 |g>fe>d "="c2B2 | a2A2B2d2 | g>af>g "="e2d2 ||
